static/images/skills/swift.svg

<?xml version="1.0" encoding="UTF-8" standalone="no"?>
<!DOCTYPE svg PUBLIC "-//W3C//DTD SVG 1.1//EN" "http://www.w3.org/Graphics/SVG/1.1/DTD/svg11.dtd">
<svg width="100%" height="100%" viewBox="0 0 1200 900" version="1.1" xmlns="http://www.w3.org/2000/svg" xmlns:xlink="http://www.w3.org/1999/xlink" xml:space="preserve" xmlns:serif="http://www.serif.com/" style="fill-rule:evenodd;clip-rule:evenodd;stroke-linejoin:round;stroke-miterlimit:2;">
    <rect x="0" y="0" width="1200" height="900" style="fill:rgb(170,35,14);"/>
    <g transform="matrix(4.79233,0,0,4.79233,293.291,143.291)">
        <g transform="matrix(1.00449,0,0,1.00449,-0.307638,-0.287548)">
            <path d="M126.33,34.06C126.329,31.43 126.065,28.807 125.54,26.23C125.015,23.592 124.123,21.04 122.89,18.65C121.601,16.335 119.999,14.208 118.13,12.33C116.202,10.443 113.962,8.904 111.51,7.78C109.09,6.56 106.501,5.707 103.83,5.25C101.18,4.74 98.27,4.74 95.62,4.49L30.25,4.49C28.211,4.523 26.176,4.694 24.16,5C22.159,5.236 20.201,5.747 18.34,6.52C17.81,6.77 17.02,7.03 16.49,7.28C14.73,8.224 13.057,9.321 11.49,10.56C10.96,11.07 10.43,11.32 9.9,11.82C7.951,13.628 6.339,15.768 5.14,18.14C3.83,20.497 2.934,23.061 2.49,25.72C2.096,28.315 1.832,30.928 1.7,33.55L1.7,93.94C1.701,96.57 1.965,99.193 2.49,101.77C3.015,104.408 3.907,106.96 5.14,109.35C6.429,111.665 8.031,113.792 9.9,115.67C11.828,117.557 14.068,119.096 16.52,120.22C18.94,121.44 21.529,122.293 24.2,122.75C26.85,123.26 29.76,123.26 32.41,123.51L95.63,123.51C98.384,123.508 101.132,123.254 103.84,122.75C106.511,122.293 109.1,121.44 111.52,120.22C113.92,119.006 116.146,117.475 118.14,115.67C120.089,113.862 121.701,111.722 122.9,109.35C124.21,106.993 125.106,104.429 125.55,101.77C125.944,99.175 126.208,96.562 126.34,93.94L126.34,34.06L126.33,34.06Z" style="fill:rgb(240,81,56);fill-rule:nonzero;"/>
        </g>
        <g transform="matrix(1.00449,0,0,1.00449,-0.307638,-0.287548)">
            <path d="M85,96.5C73.89,102.63 58.62,103.26 43.25,96.97C31.268,92.108 21.019,83.755 13.84,73C17.177,75.554 20.822,77.678 24.69,79.32C40.56,86.42 56.42,85.93 67.59,79.32C51.69,67.66 38.19,52.5 28.13,40.12C26.145,38.028 24.373,35.743 22.84,33.3C35,43.91 54.34,57.3 61.22,61.09C51.397,51.025 42.37,40.212 34.22,28.75C47.767,41.915 62.674,53.604 78.69,63.62C79.4,64 79.95,64.32 80.39,64.62C80.859,63.474 81.263,62.302 81.6,61.11C85.31,48.22 81.07,33.57 71.81,21.44C93.25,33.81 106,57.05 100.66,76.51C100.52,77.04 100.37,77.51 100.21,78.06L100.4,78.28C110.99,90.91 108.08,104.28 106.75,101.78C101,91 90.37,94.33 85,96.5Z" style="fill:rgb(254,254,254);fill-rule:nonzero;"/>
        </g>
    </g>
</svg>

<svg xmlns="http://www.w3.org/2000/svg" xml:space="preserve" style="fill-rule:evenodd;clip-rule:evenodd;stroke-linejoin:round;stroke-miterlimit:2" viewBox="0 0 1200 900"><path d="M0 0h1200v900H0z" style="fill:#aa230e"/><path d="M126.33 34.06a39.3 39.3 0 0 0-.79-7.83 28.8 28.8 0 0 0-2.65-7.58 28.9 28.9 0 0 0-4.76-6.32 23.4 23.4 0 0 0-6.62-4.55 27.3 27.3 0 0 0-7.68-2.53c-2.65-.51-5.56-.51-8.21-.76H30.25a45.5 45.5 0 0 0-6.09.51 21.8 21.8 0 0 0-5.82 1.52c-.53.25-1.32.51-1.85.76a34 34 0 0 0-5 3.28c-.53.51-1.06.76-1.59 1.26a22.4 22.4 0 0 0-4.76 6.32 23.6 23.6 0 0 0-2.65 7.58 78 78 0 0 0-.79 7.83v60.39c.001 2.63.265 5.253.79 7.83a28.8 28.8 0 0 0 2.65 7.58 28.9 28.9 0 0 0 4.76 6.32 23.4 23.4 0 0 0 6.62 4.55 27.3 27.3 0 0 0 7.68 2.53c2.65.51 5.56.51 8.21.76h63.22a45 45 0 0 0 8.21-.76 27.3 27.3 0 0 0 7.68-2.53 30.1 30.1 0 0 0 6.62-4.55 22.4 22.4 0 0 0 4.76-6.32 23.6 23.6 0 0 0 2.65-7.58 78 78 0 0 0 .79-7.83V34.06z" style="fill:#f05138;fill-rule:nonzero" transform="translate(291.817 141.913)scale(4.81385)"/><path d="M85 96.5c-11.11 6.13-26.38 6.76-41.75.47A64.54 64.54 0 0 1 13.84 73a50 50 0 0 0 10.85 6.32c15.87 7.1 31.73 6.61 42.9 0-15.9-11.66-29.4-26.82-39.46-39.2a43.5 43.5 0 0 1-5.29-6.82c12.16 10.61 31.5 24 38.38 27.79a272 272 0 0 1-27-32.34 266.8 266.8 0 0 0 44.47 34.87c.71.38 1.26.7 1.7 1a33 33 0 0 0 1.21-3.51c3.71-12.89-.53-27.54-9.79-39.67C93.25 33.81 106 57.05 100.66 76.51c-.14.53-.29 1-.45 1.55l.19.22c10.59 12.63 7.68 26 6.35 23.5C101 91 90.37 94.33 85 96.5" style="fill:#fefefe;fill-rule:nonzero" transform="translate(291.817 141.913)scale(4.81385)"/></svg>
